static/fa/svgs/solid/bed-pulse.svg

<svg xmlns="http://www.w3.org/2000/svg" viewBox="0 0 640 512"><!--! Font Awesome Free 6.5.2 by @fontawesome - https://fontawesome.com License - https://fontawesome.com/license/free (Icons: CC BY 4.0, Fonts: SIL OFL 1.1, Code: MIT License) Copyright 2024 Fonticons, Inc. --><path d="M483.2 9.6L524 64h92c13.3 0 24 10.7 24 24s-10.7 24-24 24H512c-7.6 0-14.7-3.6-19.2-9.6L468.7 70.3l-47 99.9c-3.7 7.8-11.3 13.1-19.9 13.7s-16.9-3.4-21.7-10.6L339.2 112H216c-13.3 0-24-10.7-24-24s10.7-24 24-24H352c8 0 15.5 4 20 10.7l24.4 36.6 45.9-97.5C445.9 6.2 453.2 1 461.6 .1s16.6 2.7 21.6 9.5zM320 160h12.7l20.7 31.1c11.2 16.8 30.6 26.3 50.7 24.8s37.9-13.7 46.5-32L461.9 160H544c53 0 96 43 96 96V480c0 17.7-14.3 32-32 32s-32-14.3-32-32V448H352 320 64v32c0 17.7-14.3 32-32 32s-32-14.3-32-32V96C0 78.3 14.3 64 32 64s32 14.3 32 32V352H288V192c0-17.7 14.3-32 32-32zm-144 0a80 80 0 1 1 0 160 80 80 0 1 1 0-160z"/></svg>

<svg xmlns="http://www.w3.org/2000/svg" viewBox="0 0 640 512"><!--! Font Awesome Free 6.1.2 by @fontawesome - https://fontawesome.com License - https://fontawesome.com/license/free (Icons: CC BY 4.0, Fonts: SIL OFL 1.1, Code: MIT License) Copyright 2022 Fonticons, Inc. --><path d="M524 64H616C629.3 64 640 74.75 640 88C640 101.3 629.3 112 616 112H512C504.4 112 497.3 108.4 492.8 102.4L468.7 70.31L421.7 170.2C418 178.1 410.4 183.3 401.8 183.9C393.1 184.6 384.8 180.5 380 173.3L339.2 112H216C202.7 112 192 101.3 192 88C192 74.75 202.7 64 216 64H352C360 64 367.5 68.01 371.1 74.69L396.4 111.3L442.3 13.78C445.9 6.163 453.2 .9806 461.6 .1246C469.9-.7314 478.1 2.865 483.2 9.6L524 64zM320 160H332.7L353.4 191.1C364.6 207.9 384 217.3 404.1 215.8C424.3 214.4 442.1 202.1 450.7 183.8L461.9 160H544C597 160 640 202.1 640 256V480C640 497.7 625.7 512 608 512C590.3 512 576 497.7 576 480V448H64V480C64 497.7 49.67 512 32 512C14.33 512 0 497.7 0 480V96C0 78.33 14.33 64 32 64C49.67 64 64 78.33 64 96V352H288V192C288 174.3 302.3 160 320 160zM96 240C96 195.8 131.8 160 176 160C220.2 160 256 195.8 256 240C256 284.2 220.2 320 176 320C131.8 320 96 284.2 96 240z"/></svg>
